img/vkontakte.svg

<svg width="23" height="26" viewBox="0 0 23 26" fill="none" xmlns="http://www.w3.org/2000/svg">
	<path d="M21.0578 23.1669C22.3524 21.6495 23 19.9256 23 17.9952C23 14.77 20.3795 12.5167 16.7104 11.704C18.2892 11.3102 19.476 10.8769 20.2725 9.82914C21.0685 8.78136 21.4666 7.60888 21.4666 6.31371C21.4666 4.53562 20.7811 3.46042 19.4104 2.07623C18.0395 0.69205 15.8589 0 12.8681 0H0V26H13.5008C17.7378 26.0001 19.7631 24.6843 21.0578 23.1669ZM7.15553 5.14199H10.3755C12.3139 5.14199 13.2834 5.80362 13.2834 7.25114C13.2834 7.78441 13.0757 8.78752 12.6605 9.2572C12.2449 9.72704 11.5314 9.96192 10.5209 9.96192H7.15562V5.14199H7.15553ZM7.11795 20.2097V15.4858H11.0644C12.3381 15.4858 13.2142 15.7367 13.6918 16.2381C14.1692 16.7398 14.4086 17.2887 14.4086 17.8858C14.4086 18.4829 14.1625 19.0189 13.6712 19.4953C13.1794 19.9719 12.4072 20.2097 11.3551 20.2097H7.11795Z" fill="white" />
</svg>

<svg width="23" height="26" viewBox="0 0 23 26" fill="none" xmlns="http://www.w3.org/2000/svg"><path d="M21.058 23.167C22.352 21.649 23 19.926 23 17.995c0-3.225-2.62-5.478-6.29-6.291 1.58-.394 2.766-.827 3.563-1.875.796-1.048 1.194-2.22 1.194-3.515 0-1.778-.686-2.854-2.057-4.238C18.04.692 15.86 0 12.868 0H0v26h13.5c4.238 0 6.263-1.316 7.558-2.833zM7.156 5.142h3.22c1.938 0 2.907.662 2.907 2.11 0 .532-.207 1.536-.622 2.005-.416.47-1.13.705-2.14.705H7.156v-4.82zM7.118 20.21v-4.724h3.946c1.274 0 2.15.25 2.628.752.477.502.717 1.05.717 1.648 0 .597-.247 1.133-.738 1.61-.492.476-1.264.714-2.316.714H7.118z" fill="#fff"/></svg>
